www/assets/icons/notifications_off.svg

<svg xmlns="http://www.w3.org/2000/svg" width="24" height="24" viewBox="0 0 24 24" fill='currentColor'><path d="M19.5 18.44 4.77 3.24 3.5 4.51l2.8 2.8v.01c-.52.99-.8 2.16-.8 3.42v5l-2 2v1h13.73l2 2 1.27-1.27zm-8 3.31c1.11 0 2-.89 2-2h-4c0 1.11.89 2 2 2m6-7.32v-3.68c0-3.08-1.64-5.64-4.5-6.32v-.68c0-.83-.67-1.5-1.5-1.5s-1.5.67-1.5 1.5v.68c-.15.03-.29.08-.42.12-.1.03-.2.07-.3.11h-.01c-.01 0-.01 0-.02.01-.23.09-.46.2-.68.31 0 0-.01 0-.01.01z"/></svg>

<svg width="24" height="24" viewBox="0 0 24 24" xmlns="http://www.w3.org/2000/svg" fill='currentColor'><path d="M19.5 18.44L4.77 3.24L3.5 4.51L6.3 7.31V7.32C5.78 8.31 5.5 9.48 5.5 10.74V15.74L3.5 17.74V18.74H17.23L19.23 20.74L20.5 19.47L19.5 18.44ZM11.5 21.75C12.61 21.75 13.5 20.86 13.5 19.75H9.5C9.5 20.86 10.39 21.75 11.5 21.75ZM17.5 14.43V10.75C17.5 7.67 15.86 5.11 13 4.43V3.75C13 2.92 12.33 2.25 11.5 2.25C10.67 2.25 10 2.92 10 3.75V4.43C9.85 4.46 9.71 4.51 9.58 4.55C9.48 4.58 9.38 4.62 9.28 4.66H9.27C9.26 4.66 9.26 4.66 9.25 4.67C9.02 4.76 8.79 4.87 8.57 4.98C8.57 4.98 8.56 4.98 8.56 4.99L17.5 14.43Z"/></svg>
